X:5926
T:Gan Ainm
R:Reel
S:
H:
N:
D:
Z:Adrian Scahill
M:4/4
L:1/8
K:C
DEF^F d2cA|GEED E^FGB|Adde d^cAB |(3cBA GE EDCE|\
DEF^F d2cA|GEED E^FGB|Adde d^cAB |1 (3cBA GE EDCE:|2 (3cBA GE EDD^g||\
a=ged (3B^cd ed|=c3d egg2|aged (3B^cd ed|cAGE EDDg|\
ed (3e^fg age^c|d^cAB =cAGE|FGEG FGAB|(3cBA GE EDD2:||
